X:16001
T:Parsons farewell
R:Reel
C:Trad. Playford 1650
O:England
M:4/4
L:1/8
Q:1/4=140
K:Am
"Am"c2 A2 A2 Bc|"G"d2 G2 G3 G|"Am"AB c2 B2 A2|1"Em"G2 E2 E4:|2("Em"E4E2)e2|:
"Am"c4 c2 e2|"Am"c4 c2 e2|"Am"cd e2 cd e2|"G"d2 B2 B4|
"G"Bc d2 Bc d2|"Am"c2 A2 ABcd|"Em"e2 dc BA B2|1"Am"A6 e2:|2 "Am"A8|]

